assets/02_eyes/Eye 43.svg

<svg width="400" height="180" viewBox="0 0 400 180" fill="none" xmlns="http://www.w3.org/2000/svg">
<g clip-path="url(#clip0_70_1625)">
<path d="M352.774 23.0326C365.496 70.5125 336.685 119.483 288.421 132.415C240.157 145.348 190.721 117.343 177.999 69.8633L352.774 23.0326Z" fill="white"/>
<path d="M265.387 46.448C241.255 52.9139 226.85 77.4001 233.21 101.139C239.571 124.879 264.29 138.881 288.422 132.415C312.553 125.949 326.959 101.463 320.598 77.724C314.237 53.9847 289.518 39.982 265.387 46.448Z" fill="#FFCF4B"/>
<path d="M245.32 71.288C245.32 71.288 277.378 88.2281 294.785 58.6122C277.358 88.2335 308.334 106.984 308.334 106.984C280.921 91.4553 260.045 117.631 260.045 117.631C260.045 117.631 272.707 86.8025 245.294 71.2735L245.32 71.288Z" fill="white"/>
</g>
<g clip-path="url(#clip1_70_1625)">
<path d="M48.1529 23.5248L48.2935 23L222.16 69.5874L222.014 70.1324C208.942 117.703 159.824 145.838 111.989 133.02C64.153 120.203 35.6475 71.2474 48.1529 23.5248Z" fill="white"/>
<path d="M73.9008 29.8612L196.534 62.7206C187.481 96.5071 152.689 116.561 118.83 107.489C84.9712 98.4161 64.8478 63.6476 73.9008 29.8612Z" fill="#FF71EE"/>
<path d="M107.881 38.9663L162.574 53.621C158.539 68.6776 143.031 77.6094 127.942 73.5664C112.853 69.5233 103.867 54.0282 107.902 38.9717L107.881 38.9663Z" fill="white"/>
</g>
<defs>
<clipPath id="clip0_70_1625">
<rect width="180.94" height="89" fill="white" transform="translate(375.809 109) rotate(165)"/>
</clipPath>
<clipPath id="clip1_70_1625">
<rect width="180" height="90" fill="white" transform="translate(198.867 156.521) rotate(-165)"/>
</clipPath>
</defs>
</svg>

<svg xmlns="http://www.w3.org/2000/svg" width="400" height="180" fill="none" viewBox="0 0 400 180"><g clip-path="url(#Eye_43_svg_clip0_70_1625)"><path fill="#fff" d="M352.774 23.033c12.722 47.48-16.089 96.45-64.353 109.382s-97.7-15.072-110.422-62.552z"/><path fill="#ffcf4b" d="M265.387 46.448c-24.132 6.466-38.537 30.952-32.177 54.691 6.361 23.74 31.08 37.742 55.212 31.276 24.131-6.466 38.537-30.952 32.176-54.691s-31.08-37.742-55.211-31.276"/><path fill="#fff" d="M245.32 71.288s32.058 16.94 49.465-12.676c-17.427 29.622 13.549 48.372 13.549 48.372-27.413-15.529-48.289 10.647-48.289 10.647s12.662-30.829-14.751-46.357z"/></g><g clip-path="url(#Eye_43_svg_clip1_70_1625)"><path fill="#fff" d="m48.153 23.525.14-.525L222.16 69.587l-.146.545c-13.072 47.571-62.19 75.706-110.025 62.888-47.836-12.817-76.341-61.773-63.836-109.495"/><path fill="#ff71ee" d="m73.9 29.861 122.634 32.86c-9.053 33.786-43.845 53.84-77.704 44.768S64.848 63.648 73.9 29.861"/><path fill="#fff" d="m107.881 38.966 54.693 14.655c-4.035 15.057-19.543 23.988-34.632 19.945s-24.075-19.538-20.04-34.594z"/></g><defs><clipPath id="Eye_43_svg_clip0_70_1625"><rect width="180.94" height="89" fill="#fff" transform="rotate(165 180.73 79.238)"/></clipPath><clipPath id="Eye_43_svg_clip1_70_1625"><rect width="180" height="90" fill="#fff" transform="rotate(195 109.737 65.17)"/></clipPath></defs></svg>
